X:1
T:The Pink Panther
T:Pink Panther
C:Henry Mancini
Z:All Rights Reserved
L:1/8
M:4/4
K:G
V:1 treble 
%%MIDI program 40
V:1
 ^D<E z2 F<G z2 | ^D<E F<G c<B E<G | B<^A- A4 =A/G/E/D/ | E2 z2 z4 | ^D<E z2 F<G z2 | %5
 ^D<E F<G c<B G<B | e<^d- =d6- | d8 | ^D<E z2 F<G z2 | ^D<E F<G c<B E<G | B<^A- A4 =A/G/E/D/ | %11
 E2 z2 z4 | E2 e>d B>AG>E | _B<A _B<A B<A B<A | (3GED E3/2E3/2 z z2 | z8 | z4 z4 | z8 | z8 | z8 | %20
 z8 | z8 | z8 | z8 | z8 | z8 | z8 | z8 | z8 | z8 | z8 | z8 |] %32

